school/img/country/FM.svg

<svg width="13" height="12" viewBox="0 0 13 12" fill="none" xmlns="http://www.w3.org/2000/svg">
<rect width="13" height="12" rx="2" fill="white"/>
<mask id="mask0" mask-type="alpha" maskUnits="userSpaceOnUse" x="0" y="0" width="13" height="12">
<rect width="13" height="12" rx="2" fill="white"/>
</mask>
<g mask="url(#mask0)">
<rect width="13" height="12" fill="#95CEF5"/>
<path fill-rule="evenodd" clip-rule="evenodd" d="M5.77231 4.09444L6.50005 3.45601L7.22778 4.09444L6.98282 3.00273L7.67755 2.30558L6.79842 2.2693L6.50005 1.20001L6.20168 2.2693L5.32255 2.30558L6.01727 3.00273L5.77231 4.09444ZM5.77231 10.4944L6.50005 9.856L7.22778 10.4944L6.98282 9.40272L7.67755 8.70558L6.79842 8.66929L6.50005 7.6L6.20168 8.66929L5.32255 8.70558L6.01727 9.40272L5.77231 10.4944ZM8.97622 6.65602L8.24848 7.29445L8.49344 6.20274L7.79872 5.50559L8.67784 5.46931L8.97622 4.40002L9.27459 5.46931L10.1537 5.50559L9.45899 6.20274L9.70395 7.29445L8.97622 6.65602ZM3.29608 7.29445L4.02381 6.65602L4.75155 7.29445L4.50659 6.20274L5.20131 5.50559L4.32218 5.46931L4.02381 4.40002L3.72544 5.46931L2.84631 5.50559L3.54104 6.20274L3.29608 7.29445Z" fill="white"/>
</g>
</svg>

<svg width="13" height="12" fill="none" xmlns="http://www.w3.org/2000/svg"><rect width="13" height="12" rx="2" fill="#fff"/><mask id="a" maskUnits="userSpaceOnUse" x="0" y="0" width="13" height="12"><rect width="13" height="12" rx="2" fill="#fff"/></mask><g mask="url(#a)"><path fill="#95CEF5" d="M0 0h13v12H0z"/><path fill-rule="evenodd" clip-rule="evenodd" d="M5.772 4.094l.728-.638.728.638-.245-1.091.695-.697-.88-.037L6.5 1.2l-.298 1.07-.88.036.695.697-.245 1.091zm0 6.4l.728-.638.728.638-.245-1.091.695-.697-.88-.037L6.5 7.6l-.298 1.07-.88.036.695.697-.245 1.091zm3.204-3.838l-.728.638.245-1.091-.694-.697.879-.037.298-1.069.299 1.07.879.036-.695.697.245 1.091-.728-.638zm-5.68.638l.728-.638.728.638-.245-1.091.694-.697-.879-.037L4.024 4.4l-.299 1.07-.879.036.695.697-.245 1.091z" fill="#fff"/></g></svg>
